storage/app/icons/phosphoricons/bold/selection-foreground-bold.svg

<svg xmlns="http://www.w3.org/2000/svg" fill="currentColor" viewBox="0 0 256 256"><path d="M68 216a12 12 0 0 1-12 12h-8a20 20 0 0 1-20-20v-8a12 12 0 0 1 24 0v4h4a12 12 0 0 1 12 12m44-12H96a12 12 0 0 0 0 24h16a12 12 0 0 0 0-24m-72-32a12 12 0 0 0 12-12v-16a12 12 0 0 0-24 0v16a12 12 0 0 0 12 12m128 16a12 12 0 0 0-12 12v4h-4a12 12 0 0 0 0 24h8a20 20 0 0 0 20-20v-8a12 12 0 0 0-12-12m0-72a12 12 0 0 0 12-12v-8a20 20 0 0 0-20-20h-8a12 12 0 0 0 0 24h4v4a12 12 0 0 0 12 12M56 76h-8a20 20 0 0 0-20 20v8a12 12 0 0 0 24 0v-4h4a12 12 0 0 0 0-24m152-48H100a20 20 0 0 0-20 20v40a6 6 0 0 0 0 .6A12 12 0 0 0 92 100h20a12 12 0 0 0 0-24h-8V52h100v100h-24v-8a12 12 0 0 0-24 0v20a12 12 0 0 0 12 12h40a20 20 0 0 0 20-20V48a20 20 0 0 0-20-20"/></svg>

<svg xmlns="http://www.w3.org/2000/svg" viewBox="0 0 256 256" fill="currentColor"><path d="M68,216a12,12,0,0,1-12,12H48a20,20,0,0,1-20-20v-8a12,12,0,0,1,24,0v4h4A12,12,0,0,1,68,216Zm44-12H96a12,12,0,0,0,0,24h16a12,12,0,0,0,0-24ZM40,172a12,12,0,0,0,12-12V144a12,12,0,0,0-24,0v16A12,12,0,0,0,40,172Zm128,16a12,12,0,0,0-12,12v4h-4a12,12,0,0,0,0,24h8a20,20,0,0,0,20-20v-8A12,12,0,0,0,168,188Zm0-72a12,12,0,0,0,12-12V96a20,20,0,0,0-20-20h-8a12,12,0,0,0,0,24h4v4A12,12,0,0,0,168,116ZM56,76H48A20,20,0,0,0,28,96v8a12,12,0,0,0,24,0v-4h4a12,12,0,0,0,0-24ZM208,28H100A20,20,0,0,0,80,48V88a5.47,5.47,0,0,0,0,.6A12,12,0,0,0,92,100h20a12,12,0,0,0,0-24h-8V52H204V152H180v-8a12,12,0,0,0-24,0v20a12,12,0,0,0,12,12h40a20,20,0,0,0,20-20V48A20,20,0,0,0,208,28Z"/></svg>
